resources/svg/question-circle.svg

<svg xmlns="http://www.w3.org/2000/svg" viewBox="0 0 15 15" fill="currentColor"><path fill-rule="evenodd" clip-rule="evenodd" d="M0 7.5C0 3.35786 3.35786 0 7.5 0C11.6421 0 15 3.35786 15 7.5C15 11.6421 11.6421 15 7.5 15C3.35786 15 0 11.6421 0 7.5ZM5.5 6C5.5 4.89543 6.39543 4 7.5 4H8.1C9.14934 4 10 4.85066 10 5.9V6C10 7.10457 9.10457 8 8 8V9H7V7H8C8.55228 7 9 6.55228 9 6V5.9C9 5.40294 8.59706 5 8.1 5H7.5C6.94772 5 6.5 5.44772 6.5 6H5.5ZM7 11V10H8V11H7Z" fill="black"/></svg>

<svg xmlns="http://www.w3.org/2000/svg" viewBox="0 0 15 15" fill="currentColor"><path fill-rule="evenodd" clip-rule="evenodd" d="M0 7.5a7.5 7.5 0 1115 0 7.5 7.5 0 01-15 0zM5.5 6a2 2 0 012-2h.6c1.05 0 1.9.85 1.9 1.9V6a2 2 0 01-2 2v1H7V7h1a1 1 0 001-1v-.1a.9.9 0 00-.9-.9h-.6a1 1 0 00-1 1h-1zM7 11v-1h1v1H7z" fill="currentColor"/></svg>
